packages/icons/src/assets/store.svg

<svg width="16" height="16" viewBox="0 0 16 16" fill="currentColor" xmlns="http://www.w3.org/2000/svg">
<path d="M14.224 1.5C15.2601 1.50026 16.1 2.34046 16.1 3.37695V14.5H14.849V3.37695C14.849 3.03156 14.5692 2.75124 14.224 2.75098H2.97693C2.63148 2.75098 2.35095 3.0314 2.35095 3.37695V14.5H1.09998V3.37695C1.09998 2.3403 1.94059 1.5 2.97693 1.5H14.224ZM8.59998 7.47363C10.3204 7.47365 11.6652 8.92858 11.6654 10.6592V14.5H10.4154V10.6592C10.4152 9.56209 9.57436 8.72462 8.59998 8.72461C7.62559 8.72462 6.78571 9.56209 6.78552 10.6592V14.5H5.53552V10.6592C5.53571 8.92858 6.87955 7.47365 8.59998 7.47363ZM14.098 5.66016H3.08923V4.3584H14.098V5.66016Z"/>
</svg>

<svg xmlns="http://www.w3.org/2000/svg" width="16" height="16" viewBox="0 0 16 16"><path d="M14.224 1.5c1.036 0 1.876.84 1.876 1.877V14.5h-1.251V3.377a.626.626 0 0 0-.625-.626H2.977a.626.626 0 0 0-.626.626V14.5H1.1V3.377C1.1 2.34 1.94 1.5 2.977 1.5zM8.6 7.474c1.72 0 3.065 1.455 3.065 3.185V14.5h-1.25v-3.84c0-1.098-.84-1.935-1.815-1.935-.974 0-1.814.837-1.814 1.934V14.5h-1.25v-3.84c0-1.731 1.344-3.186 3.064-3.186m5.498-1.814H3.089V4.358h11.009z"/></svg>
